Origami/64x64/apps/torchlight-2.svg

<svg width="64" height="64" version="1" xmlns="http://www.w3.org/2000/svg">
 <rect transform="matrix(0,-1,-1,0,0,0)" x="-61" y="-60" width="56" height="56" rx="2.8" ry="2.8" style="opacity:.2"/>
 <rect transform="matrix(0,-1,-1,0,0,0)" x="-60" y="-60" width="56" height="56" rx="2.8" ry="2.8" style="fill:#4f4f4f"/>
 <path d="m18 12v12.199609c0-1.4 3.477752-3.867162 5.601562-4.199218h6.398438v24.999609l-3 4h12l-3-4v-18.5c1.158328-8.184192 4.061414-10.04483 9.929688-11.5h-25.554688zm-5 15 3 4v17.800782l-3 4.199218h14l-3-4.199218v-17.800782l3-4zm26 0 3 4v17.800782l-3 4.199218h14l-3-4.199218v-17.800782l3-4z" style="opacity:.2"/>
 <path d="m18 11v12.200391c0-1.4 3.450388-4.2 5.6-4.2h6.4v24.999609l-3 4h12l-3-4v-18.498624c1.158328-8.184192 4.060556-10.046206 9.92883-11.501376h-25.553922z" style="fill:#ff8e19"/>
 <path d="m13 26h14l-3 4v17.8l3 4.2h-14l3-4.2v-17.8z" style="fill:#1289db"/>
 <path d="m39 26h14l-3 4v17.8l3 4.2h-14l3-4.2v-17.8z" style="fill:#1289db"/>
 <path d="M 6.8007812 4 C 5.2495812 4 4 5.2495812 4 6.8007812 L 4 7.8007812 C 4 6.2495813 5.2495812 5 6.8007812 5 L 57.199219 5 C 58.750419 5 60 6.2495812 60 7.8007812 L 60 6.8007812 C 60 5.2495813 58.750419 4 57.199219 4 L 6.8007812 4 z" style="fill:#ffffff;opacity:.1"/>
 <path d="m18 11v1l2.375 3h22.318359c0.963505-0.382953 2.03461-0.702007 3.236329-1h-25.554688l-2.375-3zm-5 15l0.75 1h12.5l0.75-1h-14zm26 0l0.75 1h12.5l0.75-1h-14zm-9 18l-3 4h0.75l2.25-3v-1zm6 0v1l2.25 3h0.75l-3-4zm-20 3.800781l-3 4.199219h0.714844l2.285156-3.199219v-1zm8 0v1l2.285156 3.199219h0.714844l-3-4.199219zm18 0l-3 4.199219h0.714844l2.285156-3.199219v-1zm8 0v1l2.285156 3.199219h0.714844l-3-4.199219z" style="fill:#ffffff;opacity:.1"/>
</svg>

<svg xmlns="http://www.w3.org/2000/svg" width="64" height="64" version="1">
 <rect style="opacity:0.2" width="56" height="56" x="-61" y="-60" rx="2.8" ry="2.8" transform="matrix(0,-1,-1,0,0,0)"/>
 <rect style="fill:#4f4f4f" width="56" height="56" x="-60" y="-60" rx="2.8" ry="2.8" transform="matrix(0,-1,-1,0,0,0)"/>
 <path style="opacity:0.2" d="m 18,12 0,12.199609 c 0,-1.4 3.477752,-3.867162 5.601562,-4.199218 L 30,20.000391 30,45 27,49 39,49 36,45 36,26.5 C 37.158328,18.315808 40.061414,16.45517 45.929688,15 L 20.375,15 Z m -5,15 3,4 0,17.800782 L 13,53 27,53 24,48.800782 24,31 27,27 Z m 26,0 3,4 0,17.800782 L 39,53 53,53 50,48.800782 50,31 53,27 Z"/>
 <path style="fill:#ff8e19" d="m 18,11 0,12.200391 c 0,-1.4 3.450388,-4.2 5.6,-4.2 l 6.4,0 L 30,44 27,48 39,48 36,44 36,25.501376 C 37.158328,17.317184 40.060556,15.45517 45.92883,14 l -25.553922,0 z"/>
 <path style="fill:#1289db" d="m 13,26 14,0 -3,4 0,17.8 3,4.2 -14,0 3,-4.2 0,-17.8 z"/>
 <path style="fill:#1289db" d="m 39,26 14,0 -3,4 0,17.8 3,4.2 -14,0 3,-4.2 0,-17.8 z"/>
 <path style="opacity:0.1;fill:#ffffff" d="M 6.8007812 4 C 5.2495812 4 4 5.2495812 4 6.8007812 L 4 7.8007812 C 4 6.2495813 5.2495812 5 6.8007812 5 L 57.199219 5 C 58.750419 5 60 6.2495812 60 7.8007812 L 60 6.8007812 C 60 5.2495813 58.750419 4 57.199219 4 L 6.8007812 4 z"/>
 <path style="opacity:0.1;fill:#ffffff" d="M 18 11 L 18 12 L 20.375 15 L 42.693359 15 C 43.656864 14.617047 44.727969 14.297993 45.929688 14 L 20.375 14 L 18 11 z M 13 26 L 13.75 27 L 26.25 27 L 27 26 L 13 26 z M 39 26 L 39.75 27 L 52.25 27 L 53 26 L 39 26 z M 30 44 L 27 48 L 27.75 48 L 30 45 L 30 44 z M 36 44 L 36 45 L 38.25 48 L 39 48 L 36 44 z M 16 47.800781 L 13 52 L 13.714844 52 L 16 48.800781 L 16 47.800781 z M 24 47.800781 L 24 48.800781 L 26.285156 52 L 27 52 L 24 47.800781 z M 42 47.800781 L 39 52 L 39.714844 52 L 42 48.800781 L 42 47.800781 z M 50 47.800781 L 50 48.800781 L 52.285156 52 L 53 52 L 50 47.800781 z"/>
</svg>
